app/assets/images/payment_icons/duitnow.svg

<svg xmlns="http://www.w3.org/2000/svg" xmlns:xlink="http://www.w3.org/1999/xlink" role="img" viewBox="0 0 38 24" width="38" height="24" aria-labelledby="pi-duitnow"><title id="pi-duitnow">DuitNow</title>
<g clip-path="url(#pi-duitnow)">
<path opacity="0.07" fill-rule="evenodd" clip-rule="evenodd" d="M35 0H3C1.3 0 0 1.3 0 3V21C0 22.7 1.4 24 3 24H35C36.7 24 38 22.7 38 21V3C38 1.3 36.6 0 35 0Z" fill="black"/>
<path fill-rule="evenodd" clip-rule="evenodd" d="M35 1C36.1 1 37 1.9 37 3V21C37 22.1 36.1 23 35 23H3C1.9 23 1 22.1 1 21V3C1 1.9 1.9 1 3 1H35Z" fill="white"/>
<path d="M18.9507 3.40708C15.6161 3.40708 12.9126 6.12068 12.9126 9.46798V15.5293H18.9507C22.2853 15.5293 24.9886 12.8154 24.9886 9.46798C24.9886 6.12068 22.2853 3.40708 18.9507 3.40708Z" fill="#E5155F"/>
<path d="M10.7214 19.8111C10.936 19.8111 11.1258 19.767 11.2859 19.6804C11.446 19.5937 11.5661 19.4769 11.6537 19.3231C11.7405 19.1703 11.7847 18.9899 11.7847 18.787C11.7847 18.5837 11.7405 18.4036 11.6537 18.2505C11.5661 18.0969 11.446 17.9803 11.2859 17.8934C11.1258 17.8066 10.936 17.7623 10.7214 17.7623H10.2167V19.8111H10.7214ZM9.90487 20.4067C9.82049 20.4067 9.74518 20.3757 9.68649 20.3171C9.62814 20.2587 9.59741 20.183 9.59741 20.0984V17.4797C9.59741 17.3959 9.62781 17.3199 9.68498 17.2601C9.74359 17.199 9.81957 17.167 9.90487 17.167H10.7686C11.1156 17.167 11.416 17.246 11.6614 17.4026C11.9059 17.5585 12.0923 17.763 12.2157 18.0111C12.3378 18.2562 12.3998 18.5172 12.3998 18.787C12.3998 19.0568 12.3378 19.3177 12.2157 19.5627C12.0923 19.8105 11.9059 20.0153 11.6614 20.1711C11.416 20.3274 11.1156 20.4067 10.7686 20.4067H9.90487Z" fill="#11100E"/>
<path d="M15.865 17.7351C15.7751 17.7351 15.6938 17.701 15.6297 17.6364C15.5658 17.5724 15.5317 17.4906 15.5317 17.4004V17.3832C15.5317 17.2929 15.5658 17.2111 15.6297 17.1469C15.6938 17.0826 15.7754 17.0486 15.865 17.0486H15.8908C15.9808 17.0486 16.0623 17.0826 16.1262 17.1469C16.1903 17.2111 16.224 17.2929 16.224 17.3832V17.4004C16.224 17.4906 16.1903 17.5724 16.1262 17.6364C16.0623 17.701 15.9808 17.7351 15.8908 17.7351H15.865ZM15.8737 20.4067C15.7893 20.4067 15.7141 20.3757 15.6554 20.3171C15.5971 20.2586 15.5663 20.183 15.5663 20.0984V18.2476C15.5663 18.1637 15.5966 18.0878 15.654 18.0278C15.7123 17.967 15.7886 17.9346 15.8737 17.9346C15.9609 17.9346 16.0377 17.9654 16.0962 18.0243C16.1546 18.0831 16.1854 18.1601 16.1854 18.2476V20.0984C16.1854 20.1836 16.1535 20.26 16.0924 20.3185C16.0327 20.3763 15.957 20.4067 15.8737 20.4067Z" fill="#11100E"/>
<path d="M14.7099 17.9129C14.6263 17.9129 14.5507 17.9436 14.4909 18.0013C14.4302 18.0599 14.398 18.136 14.398 18.2217V18.2409C14.398 18.2432 14.3975 18.2451 14.3975 18.2476V19.3971C14.3975 19.6854 14.1494 19.8155 13.9179 19.8155C13.6663 19.8155 13.4486 19.6921 13.4486 19.4035V18.2217C13.4486 18.1371 13.4178 18.0613 13.3595 18.0027C13.3009 17.9439 13.2255 17.9129 13.1411 17.9129C13.0576 17.9129 12.982 17.9436 12.9224 18.0013C12.8615 18.0599 12.8296 18.136 12.8296 18.2217V19.4469C12.8296 19.6185 12.8642 19.7789 12.933 19.923C13.0036 20.0713 13.1072 20.1903 13.2408 20.2765C13.3752 20.3629 13.5339 20.4067 13.7128 20.4067C13.9039 20.4067 14.0703 20.3792 14.1904 20.2664C14.2856 20.1775 14.3361 20.0668 14.3636 20.0652C14.3907 20.0643 14.3956 20.0823 14.3975 20.0984C14.4053 20.1921 14.4282 20.2586 14.4868 20.3171C14.5451 20.3757 14.6205 20.4067 14.7048 20.4067C14.7884 20.4067 14.8639 20.3763 14.9234 20.3185C14.9845 20.26 15.0168 20.1835 15.0168 20.0984V19.3603C15.0168 19.3594 15.0173 19.3581 15.0173 19.3577V18.2217C15.0173 18.1371 14.9865 18.0613 14.9278 18.0025C14.8697 17.9439 14.7939 17.9129 14.7099 17.9129Z" fill="#11100E"/>
<path d="M21.0003 20.4067C20.9359 20.4067 20.8743 20.3911 20.8175 20.3606C20.7631 20.3315 20.7172 20.2924 20.6815 20.2443L20.6789 20.2408L19.2238 18.2064V20.0984C19.2238 20.1836 19.1917 20.26 19.1307 20.3185C19.0712 20.3763 18.9955 20.4067 18.912 20.4067C18.8277 20.4067 18.7524 20.3757 18.6939 20.3171C18.6353 20.2586 18.6046 20.183 18.6046 20.0984V17.5983C18.6046 17.4899 18.6431 17.3955 18.7186 17.3176C18.7939 17.2402 18.8907 17.1989 18.9979 17.1989H19.054C19.1421 17.1989 19.2708 17.2293 19.3807 17.3732L19.3824 17.3755L20.8307 19.3241V17.512C20.8307 17.4279 20.8609 17.3519 20.9182 17.2923C20.9767 17.2313 21.0528 17.1989 21.1381 17.1989C21.2222 17.1989 21.2985 17.2307 21.3583 17.2907C21.418 17.3508 21.4498 17.4272 21.4498 17.512V20.0117C21.4498 20.1197 21.409 20.2168 21.3316 20.2924C21.2539 20.3683 21.1598 20.4067 21.052 20.4067H21.0003Z" fill="#E5155F"/>
<path d="M27.2145 20.4067C27.1277 20.4067 27.0486 20.3815 26.979 20.3321C26.9122 20.2842 26.8636 20.2217 26.8346 20.1461L26.8328 20.1417L26.4675 19.0543L26.1009 20.144L26.1002 20.1465C26.071 20.2217 26.0221 20.2842 25.9553 20.3321C25.8859 20.3815 25.8066 20.4067 25.7202 20.4067C25.6335 20.4067 25.5544 20.3815 25.4849 20.3321C25.4171 20.2836 25.3693 20.2216 25.3436 20.1474L24.7009 18.3535C24.6873 18.3152 24.6805 18.2786 24.6805 18.2432C24.6805 18.1587 24.7131 18.0828 24.7747 18.0242C24.8362 17.9654 24.9157 17.9346 25.0048 17.9346C25.0704 17.9346 25.1313 17.9515 25.1859 17.9854C25.2436 18.0216 25.2835 18.0699 25.3043 18.1294L25.7211 19.4351L26.1305 18.1708C26.1534 18.101 26.1962 18.0437 26.2575 18.0002C26.3194 17.9567 26.3901 17.9346 26.4675 17.9346C26.5447 17.9346 26.6152 17.9567 26.6769 18.0002C26.7385 18.0437 26.7809 18.1007 26.8038 18.1703L27.2135 19.4351L27.63 18.1296C27.6508 18.0699 27.6908 18.0216 27.7488 17.9854C27.8029 17.9519 27.8639 17.9346 27.9299 17.9346C28.0187 17.9346 28.0981 17.9654 28.1597 18.0242C28.2211 18.0831 28.2538 18.1587 28.2538 18.2432C28.2538 18.2786 28.2473 18.3152 28.2342 18.3526L27.5908 20.1482C27.5653 20.2212 27.5175 20.2836 27.4495 20.3321C27.38 20.3815 27.3012 20.4067 27.2145 20.4067Z" fill="#E5155F"/>
<path d="M17.6059 20.4068C17.128 20.4068 16.8645 20.1638 16.8645 19.7229L16.8647 18.5H16.8393C16.7598 18.5 16.6895 18.4706 16.6367 18.415C16.5848 18.361 16.5576 18.2925 16.5576 18.2173C16.5576 18.1385 16.5854 18.0688 16.6382 18.0157C16.6912 17.9626 16.7607 17.9347 16.8393 17.9347H16.8647V17.6153C16.8647 17.5274 16.897 17.4501 16.9577 17.3918C17.0169 17.3347 17.0919 17.3046 17.1742 17.3046C17.2607 17.3046 17.3369 17.3353 17.395 17.3933C17.453 17.4517 17.4837 17.5287 17.4837 17.6153V17.9347H17.8555C17.9339 17.9347 18.0033 17.9626 18.0562 18.0156C18.1092 18.0688 18.1371 18.1385 18.1371 18.2176C18.1371 18.2925 18.1095 18.361 18.0583 18.4153C18.0053 18.4709 17.9348 18.5004 17.8555 18.5004H17.4837V19.6884C17.4837 19.782 17.5436 19.8773 17.6169 19.8818C17.7039 19.887 17.9475 19.8729 18.0167 19.9102C18.0734 19.9411 18.134 20.0183 18.1344 20.1018C18.1357 20.2104 18.0776 20.3 17.9744 20.3543L17.972 20.3554L17.9695 20.3566C17.8431 20.4153 17.7482 20.4068 17.6059 20.4068Z" fill="#11100E"/>
<path d="M18.9507 10.9663H17.4586V9.46842C17.4586 8.64138 18.1265 7.9705 18.9507 7.9705C19.7746 7.9705 20.4427 8.64138 20.4427 9.46842C20.4427 10.2956 19.7746 10.9663 18.9507 10.9663ZM18.9507 6.11547C17.1059 6.11547 15.6106 7.6166 15.6106 9.46842V12.8213H18.9507C20.7956 12.8213 22.2909 11.3202 22.2909 9.46842C22.2909 7.6166 20.7956 6.11547 18.9507 6.11547Z" fill="white"/>
<path d="M23.2092 19.8166C22.832 19.8166 22.526 19.5095 22.526 19.1308C22.526 18.7522 22.832 18.4452 23.2092 18.4452C23.5865 18.4452 23.8925 18.7522 23.8925 19.1308C23.8925 19.5095 23.5865 19.8166 23.2092 19.8166ZM23.2092 17.856C22.5078 17.856 21.9392 18.4268 21.9392 19.1308C21.9392 19.835 22.5078 20.4058 23.2092 20.4058C23.9106 20.4058 24.4793 19.835 24.4793 19.1308C24.4793 18.4268 23.9106 17.856 23.2092 17.856Z" fill="#E5155F"/>
</g>
<defs>
<clipPath id="pi-duitnow">
<rect width="38" height="24" fill="white"/>
</clipPath>
</defs>
</svg>

<svg xmlns="http://www.w3.org/2000/svg" width="38" height="24" aria-labelledby="pi-duitnow"><g clip-path="url(#a)"><path fill-rule="evenodd" d="M35 0H3C1.3 0 0 1.3 0 3v18c0 1.7 1.4 3 3 3h32c1.7 0 3-1.3 3-3V3c0-1.7-1.4-3-3-3Z" clip-rule="evenodd" opacity=".07"/><path fill="#fff" fill-rule="evenodd" d="M35 1c1.1 0 2 .9 2 2v18c0 1.1-.9 2-2 2H3c-1.1 0-2-.9-2-2V3c0-1.1.9-2 2-2h32Z" clip-rule="evenodd"/><path fill="#E5155F" d="M18.95 3.407c-3.334 0-6.037 2.714-6.037 6.061v6.061h6.038c3.334 0 6.038-2.714 6.038-6.061s-2.704-6.06-6.038-6.06Z"/><path fill="#11100E" d="M10.721 19.811c.215 0 .405-.044.565-.13a.907.907 0 0 0 .368-.358c.087-.153.13-.333.13-.536s-.043-.383-.13-.537a.909.909 0 0 0-.368-.357 1.172 1.172 0 0 0-.565-.13h-.504v2.048h.504Zm-.816.596a.303.303 0 0 1-.307-.308v-2.62c0-.083.03-.16.087-.219a.298.298 0 0 1 .22-.093h.864c.347 0 .647.079.892.236.245.155.431.36.555.608a1.726 1.726 0 0 1 0 1.552c-.124.248-.31.452-.555.608-.245.156-.545.236-.892.236h-.864ZM15.865 17.735a.325.325 0 0 1-.235-.099.328.328 0 0 1-.098-.236v-.017c0-.09.034-.172.098-.236a.326.326 0 0 1 .235-.098h.026c.09 0 .171.034.235.098a.328.328 0 0 1 .098.236v.017c0 .09-.034.172-.098.236a.325.325 0 0 1-.235.1h-.026Zm.009 2.672a.303.303 0 0 1-.307-.308v-1.851c0-.084.03-.16.087-.22a.298.298 0 0 1 .22-.093.306.306 0 0 1 .311.313v1.85a.309.309 0 0 1-.312.308ZM14.71 17.913a.31.31 0 0 0-.312.309v1.176c0 .287-.249.418-.48.418-.252 0-.47-.124-.47-.412v-1.182a.304.304 0 0 0-.307-.31.309.309 0 0 0-.311.31v1.225c0 .172.034.332.103.476.07.148.174.267.308.354.134.086.293.13.472.13.19 0 .357-.028.477-.14.096-.09.146-.2.174-.202.027 0 .032.017.034.033.007.094.03.16.089.22.058.058.133.089.218.089.083 0 .159-.03.218-.088a.298.298 0 0 0 .094-.22V18.221a.304.304 0 0 0-.307-.31Z"/><path fill="#E5155F" d="M21 20.407a.406.406 0 0 1-.319-.162l-.002-.004-1.455-2.035v1.892a.308.308 0 0 1-.312.308.302.302 0 0 1-.218-.089.302.302 0 0 1-.09-.219v-2.5c0-.108.04-.203.115-.28a.382.382 0 0 1 .279-.12h.056c.088 0 .217.031.327.175l.001.002 1.449 1.95v-1.813a.31.31 0 0 1 .307-.313c.084 0 .16.032.22.092s.092.136.092.221v2.5c0 .108-.041.205-.118.28a.388.388 0 0 1-.28.115H21ZM27.215 20.407a.403.403 0 0 1-.38-.26l-.002-.005-.365-1.088-.367 1.09v.003a.407.407 0 0 1-.757 0l-.643-1.793a.328.328 0 0 1-.02-.11c0-.085.032-.161.094-.22a.326.326 0 0 1 .23-.09c.065 0 .126.017.18.051a.276.276 0 0 1 .12.144l.416 1.306.41-1.264a.333.333 0 0 1 .127-.17.358.358 0 0 1 .21-.066c.077 0 .147.022.209.065a.33.33 0 0 1 .127.17l.41 1.265.416-1.305c.02-.06.06-.108.119-.145a.34.34 0 0 1 .18-.05c.09 0 .17.03.23.09a.297.297 0 0 1 .095.218.33.33 0 0 1-.02.11l-.643 1.795a.397.397 0 0 1-.376.259Z"/><path fill="#11100E" d="M17.606 20.407c-.478 0-.742-.243-.742-.684V18.5h-.025a.28.28 0 0 1-.282-.283.277.277 0 0 1 .282-.283h.026v-.319a.306.306 0 0 1 .31-.31.305.305 0 0 1 .309.31v.32h.371a.277.277 0 0 1 .282.283.284.284 0 0 1-.079.197.274.274 0 0 1-.203.085h-.371v1.188c0 .094.06.19.133.194.087.005.33-.01.4.028.056.031.117.108.117.192a.276.276 0 0 1-.16.252l-.002.001-.003.002c-.126.058-.22.05-.363.05Z"/><path fill="#fff" d="M18.95 10.966H17.46V9.468c0-.827.668-1.497 1.492-1.497s1.492.67 1.492 1.497c0 .828-.668 1.498-1.492 1.498Zm0-4.85a3.346 3.346 0 0 0-3.34 3.352v3.353h3.34a3.346 3.346 0 0 0 3.34-3.353 3.346 3.346 0 0 0-3.34-3.353Z"/><path fill="#E5155F" d="M23.21 19.817a.685.685 0 0 1 0-1.372c.377 0 .682.307.682.686a.685.685 0 0 1-.683.686Zm0-1.961c-.702 0-1.27.57-1.27 1.275 0 .704.568 1.275 1.27 1.275.7 0 1.27-.571 1.27-1.275s-.57-1.275-1.27-1.275Z"/></g></svg>
